X: 4154
T: The DUKE OF BUCCLEUCH
R: Reel.
%R: reel
B: James Kerr "Merry Melodies" v.4 p.18 #154
Z: 2016 John Chambers <jc:trillian.mit.edu>
M: C|
L: 1/8
K: Bb
|:\
(BA)GF (FB)BB | (Ac)cc (Bd)dd |\
(ce)ee (df)ba |[1 gfed c2d2 :|[2 gfed c2B2 |]
|:\
(df)ff (gf)ff | (eg)gg (ag)gg |\
(df)ff (gf)ff |[1 edcB Acfe :|[2 gfed c2B2 |]

%%sep 1 1 500
%%sep 1 1 500

